images/01/tw.svg

<svg fill="none" height="49" viewBox="0 0 60 49" width="60" xmlns="http://www.w3.org/2000/svg"><path d="m18.8693 49c22.6426 0 35.025-18.8497 35.025-35.1956 0-.5354-.0109-1.0684-.0348-1.5989 2.4036-1.7461 4.4927-3.92504 6.1405-6.40548-2.2057.98518-4.5793 1.64838-7.0692 1.94743 2.5415-1.53142 4.4927-3.95395 5.4132-6.841863-2.3784 1.416873-5.0124 2.446653-7.8168 3.002633-2.2464-2.40437-5.4444-3.90822-8.9856-3.90822-6.798 0-12.3107 5.53973-12.3107 12.3682 0 .9707.108 1.9149.3192 2.8206-10.2311-.5173-19.3032-5.4396-25.37481-12.92423-1.0572 1.82804-1.66679 3.95152-1.66679 6.2173 0 4.29163 2.17326 8.08023 5.47804 10.29663-2.01963-.0627-3.91686-.6198-5.57509-1.5471-.00181.0519-.00182.1025-.00182.158 0 5.9907 4.24324 10.9925 9.87587 12.1259-1.0344.2833-2.1227.4353-3.24595.4353-.79199 0-1.56361-.0784-2.3136-.2231 1.56718 4.915 6.11165 8.4916 11.49955 8.5915-4.2133 3.3185-9.52078 5.2949-15.28916 5.2949-.9924 0-1.97279-.0567-2.93634-.1712 5.44805 3.509 11.9171 5.5565 18.8699 5.5565" fill="#555"/></svg>

<svg xmlns="http://www.w3.org/2000/svg" width="60" height="49" viewBox="0 0 60 49" fill="none"><path d="M18.8693 49C41.5119 49 53.8943 30.1503 53.8943 13.8044C53.8943 13.269 53.8834 12.736 53.8595 12.2055C56.2631 10.4594 58.3522 8.28046 60 5.80002C57.7943 6.7852 55.4207 7.4484 52.9308 7.74745C55.4723 6.21603 57.4235 3.7935 58.344 0.905587C55.9656 2.32246 53.3316 3.35224 50.5272 3.90822C48.2808 1.50385 45.0828 0 41.5416 0C34.7436 0 29.2309 5.53973 29.2309 12.3682C29.2309 13.3389 29.3389 14.2831 29.5501 15.1888C19.319 14.6715 10.2469 9.7492 4.17529 2.26457C3.11809 4.09261 2.5085 6.21609 2.5085 8.48187C2.5085 12.7735 4.68176 16.5621 7.98654 18.7785C5.96691 18.7158 4.06968 18.1587 2.41145 17.2314C2.40964 17.2833 2.40963 17.3339 2.40963 17.3894C2.40963 23.3801 6.65287 28.3819 12.2855 29.5153C11.2511 29.7986 10.1628 29.9506 9.03955 29.9506C8.24756 29.9506 7.47594 29.8722 6.72595 29.7275C8.29313 34.6425 12.8376 38.2191 18.2255 38.319C14.0122 41.6375 8.70472 43.6139 2.93634 43.6139C1.94394 43.6139 0.96355 43.5572 0 43.4427C5.44805 46.9517 11.9171 48.9992 18.8699 48.9992" fill="#555555"/></svg>
